X: 20250
T: Joe Kilmurray's
R: slip jig
M: 9/8
K: Eminor
|:BGE EDE G2A|Bee edB dBA|BGE EDE ~G2A|Bcd AdG FED:|
ded cAF GA/B/c|d{f}ed def gfe|d{f}ed cAF ~G2A|Bcd AdG FED|
ded cAF GA/B/c|d{f}ed def gfe|{g}fed cAF ~G2A|Bcd AdG F[AE]D||
|:~e3ede f2d|efe edf afd|efe ede f2d|edB AdG F[AE]D:|
|:~B3 edB G2A|Bee efg fed|Bee edB G2A|Bcd AdG F[AE]D:|

